!!!!SEGMENT:02Nankou_C.krn
!!!OTL: 楠公
!!!OPR:Eiga Banso Kyokusyu,jidai-geki,zenpen
!!!YOY:1929
!!!ONB:Dairantou
**kern
*clefG2
*C:
*M2/4
=1
8bL
16ddL
16ddJJ
16eeLL
16e
16b
16ggJJ
=2
16ff#LL
16ff#
16ff#
16eeJJ
16ff#LL
16ccn
16b
16aJJ
=3
16bLL
16aa
16ff#
16aaJJ
16bbLL
16bb
16bb
16aaJJ
=4
16bLL
16bb
16b
16bbJJ
16bLL
16bbJJ
8r
=5
8aaL
16bbL
16bbJJ
16aaLL
16bb
16aa
16bbJJ
=6
16bLL
16ff#
16ff#
16ff#JJ
16ff#LL
16ff#JJ
8r
=7
8eeL
16ff#L
16ff#JJ
16eeLL
16ff#
16ee
16ff#JJ
=8
16eLL
16cc#
16cc#
16cc#JJ
16cc#LL
16cc#JJ
16r
16ee-X
=9
16ddLL
16ddJJ
16r
16g#X
16gnLL
16gJJ
16r
16b
=10
16cc#LL
16cc#
16B
16g#XJJ
16g#LL
16g#
16g#
16g#JJ
=11
16bLL
16b
16B
16f#JJ
16BLL
16f#JJ
8r
=12
16cc#LL
16cc#
16B
16g#XJJ
16g#LL
16g#
16g#
16g#JJ
=13
16bLL
16b
16B
16f#JJ
16BLL
16f#JJ
8r
=14
16aKL
8a
16bJk
8aL
8fnJ
=15
16aKL
8a
16bJk
8aL
8bJ
=16
16eeLL
16ee
16ee
16eeJJ
16ff#LL
16ff#
16ff#
16ff#JJ
=17
16aaLL
16aa
16aa
16aaJJ
16bbLL
16bb
16bb
16bbJJ
=18
16eeLL
16ccc#
16eee
16ccc#JJ
16ccc#LL
16bbJJ
8r
=19
16aaLL
16bb
16cccn
16bbJJ
16aaLL
16bb
16aa
16ff#JJ
=20
16eeLL
16ff#
16gg
16ff#JJ
16eeLL
16ff#
16ee
16ddJJ
=21
16eeLL
16ff#
16ee
16ddJJ
16eeLL
16ff#
16ee
16ddJJ
=22
16eeLL
16ee
16dd
16ddJJ
16eeLL
16ee
16dd
16ddJJ
=23
16eeLL
16b
16b
16aJJ
16bLL
16a
16b
16aJJ
=24
16bLL
16a
16b
16aJJ
16BLL
16e
16cc#
16cc#JJ
=25
16cc#LL
16b
16b
16aJJ
16bLL
16a
16fn
16fJJ
=26
16ddLL
16ee
16dd
16eeJJ
16ff#LL
16a
16fn
16aJJ
=27
8bL
8bJ
4e
==
*-
!!!ENC: Yukiko Yoden
!!!END: 2023/06/11
